!!!COM: Music21
!!!OTL: mazurka_Roof-Thatchers-Daughter
!!!OMV: mazurka_Roof-Thatchers-Daughter
**kern
*clefG2
*k[f#c#g#]
*A:
*M3/4
=1
8cc#L
8bJ
=||
4a
8aL
8eJ
8aL
8cc#J
=
8eeL
8ff#J
8eeL
8cc#J
8aL
8cc#J
=
4b
8bL
8ddJ
8cc#L
8bJ
=
8cc#L
8aJ
4e
8cc#L
8bJ
=
4a
8aL
8eJ
8aL
8cc#J
=
8eeL
8ff#J
8eeL
8cc#J
8aL
8cc#J
!!linebreak:original
=
4b
8bL
8ddJ
8cc#L
8bJ
=
4a
4a
8cc#L
8bJ
=||
4a
8aL
8eJ
8aL
8cc#J
=
8eeL
8ff#J
8eeL
8cc#J
8aL
8cc#J
=
4b
8bL
8ddJ
8cc#L
8bJ
=
8cc#L
8aJ
4e
8cc#L
8bJ
=
4a
8aL
8eJ
8aL
8cc#J
!!linebreak:original
=
8eeL
8ff#J
8eeL
8cc#J
8aL
8cc#J
=
4b
8bL
8ddJ
8cc#L
8bJ
=
4a
8aL
8cc#J
8eeL
8aaJ
=||
4ff#
8ff#L
8eeJ
8cc#L
8eeJ
=
4ff#
8ff#L
8gg#J
8aaL
8ff#J
=
8eeL
8ff#J
8eeL
8cc#J
8aL
8cc#J
=
8aaL
8aJ
8gg#L
8aJ
8eeL
8aJ
!!linebreak:original
=
4ff#
8ff#L
8eeJ
8cc#L
8eeJ
=
4ff#
8ff#L
8gg#J
8aaL
8ff#J
=
8eeL
8ff#J
8eeL
8cc#J
8bL
8cc#J
=
4a
8aL
8eeJ
8aaL
8gg#J
=||
*M3/4
8cc#L
8bJ
=||
4a
8aL
8eJ
8aL
8cc#J
=
8eeL
8ff#J
8eeL
8cc#J
8aL
8cc#J
!!linebreak:original
=
4b
8bL
8ddJ
8cc#L
8bJ
=
8cc#L
8aJ
4e
8cc#L
8bJ
=
4a
8aL
8eJ
8aL
8cc#J
=
8eeL
8ff#J
8eeL
8cc#J
8aL
8cc#J
=
4b
8bL
8ddJ
8cc#L
8bJ
=
4a
4a
8cc#L
8bJ
=||
4a
8aL
8eJ
8aL
8cc#J
!!linebreak:original
=
8eeL
8ff#J
8eeL
8cc#J
8aL
8cc#J
=
4b
8bL
8ddJ
8cc#L
8bJ
=
8cc#L
8aJ
4e
8cc#L
8bJ
=
4a
8aL
8eJ
8aL
8cc#J
=
8eeL
8ff#J
8eeL
8cc#J
8aL
8cc#J
=
4b
8bL
8ddJ
8cc#L
8bJ
=
4a
8aL
8cc#J
8eeL
8aaJ
!!linebreak:original
=||
4ff#
8ff#L
8eeJ
8cc#L
8eeJ
=
4ff#
8ff#L
8gg#J
8aaL
8ff#J
=
8eeL
8ff#J
8eeL
8cc#J
8aL
8cc#J
=
8aaL
8aJ
8gg#L
8aJ
8eeL
8aJ
=
4ff#
8ff#L
8eeJ
8cc#L
8eeJ
=
4ff#
8ff#L
8gg#J
8aaL
8ff#J
=
8eeL
8ff#J
8eeL
8cc#J
8bL
8cc#J
!!linebreak:original
=
4.a
8a
8cc#L
8bJ
=||
*-
